assets/2023/icons/tsTest_dark.svg

<!-- Copyright 2000-2024 JetBrains s.r.o. and contributors. Use of this source code is governed by the Apache 2.0 license. -->
<svg width="16" height="16" viewBox="0 0 16 16" fill="none" xmlns="http://www.w3.org/2000/svg">
<path d="M12 2C13.1046 2 14 2.89543 14 4V9.99945L13.37 9.39422C13.0897 9.12497 12.7508 9.0031 12.418 9.00107C11.8809 8.99779 11.5037 8.99907 11.0416 9.00063C10.9 9.00111 10.7505 9.00162 10.586 9.00203C10.2513 9.00286 9.91014 9.12476 9.6284 9.39573L6.92953 11.9913C6.36009 12.539 6.35681 13.4482 6.91987 14H4C2.89543 14 2 13.1046 2 12V4C2 2.89543 2.89543 2 4 2H12Z" fill="#548AF7"/>
<path d="M12.3008 9.00042C11.8242 8.99798 11.4692 8.99919 11.0414 9.00063C10.8998 9.00111 10.7503 9.00162 10.5857 9.00203C10.3297 9.00266 10.07 9.07414 9.83587 9.22896C9.6442 9.17139 9.47212 9.0877 9.31962 8.9779C9.10587 8.824 8.94057 8.63163 8.82372 8.40078C8.70972 8.16708 8.65272 7.912 8.65272 7.63555C8.65272 7.30495 8.73822 7.00855 8.90922 6.74635C9.08307 6.4813 9.3239 6.27468 9.6317 6.12648C9.9395 5.97543 10.2872 5.8999 10.6748 5.8999C11.0709 5.8999 11.4229 5.97258 11.7307 6.11793C12.0414 6.26328 12.2836 6.46563 12.4575 6.72498C12.6313 6.98433 12.7197 7.28073 12.7225 7.61418H11.7093C11.7093 7.45173 11.6666 7.30638 11.5811 7.17813C11.4956 7.04703 11.3759 6.94585 11.222 6.8746C11.0681 6.80335 10.89 6.76773 10.6876 6.76773C10.4853 6.76773 10.3071 6.80193 10.1532 6.87033C9.99935 6.93873 9.87965 7.03563 9.79415 7.16103C9.70865 7.28643 9.6659 7.43178 9.6659 7.59708C9.6659 7.79088 9.7286 7.95903 9.854 8.10153C9.9794 8.24118 10.1433 8.3281 10.3456 8.3623L11.3417 8.52475C11.6352 8.57605 11.896 8.68578 12.124 8.85393C12.1869 8.8997 12.2458 8.94852 12.3008 9.00042Z" fill="white"/>
<path d="M7.87171 6H3.13501V7H5V12H6V7H7.87171V6Z" fill="white"/>
<path fill-rule="evenodd" clip-rule="evenodd" d="M15.3798 12.7117C15.5435 12.8691 15.5436 13.131 15.3799 13.2884L12.6774 15.8876C12.4232 16.132 12 15.9519 12 15.5993L12 10.4038C12 10.0513 12.423 9.87118 12.6772 10.1154L15.3798 12.7117Z" fill="#57965C"/>
<path fill-rule="evenodd" clip-rule="evenodd" d="M7.62255 13.2883C7.45909 13.1309 7.45916 12.8692 7.62271 12.7119L10.3216 10.1163C10.5757 9.87185 10.9989 10.0519 10.9989 10.4045V15.5986C10.9989 15.9514 10.5755 16.1314 10.3214 15.8868L7.62255 13.2883Z" fill="#DB5C5C"/>
</svg>

<svg xmlns="http://www.w3.org/2000/svg" width="16" height="16" fill="none" viewBox="0 0 16 16"><path fill="#548AF7" d="M12 2a2 2 0 0 1 2 2v6l-.63-.606c-.28-.269-.62-.39-.952-.393-.537-.003-.914-.002-1.376 0l-.456.001a1.37 1.37 0 0 0-.958.394L6.93 11.99A1.4 1.4 0 0 0 6.92 14H4a2 2 0 0 1-2-2V4a2 2 0 0 1 2-2z"/><path fill="#fff" d="M12.3 9c-.476-.002-.83 0-1.259 0l-.455.002c-.256 0-.516.072-.75.227a1.7 1.7 0 0 1-.516-.251 1.6 1.6 0 0 1-.496-.577 1.7 1.7 0 0 1-.171-.765q0-.496.256-.89a1.75 1.75 0 0 1 .723-.62 2.34 2.34 0 0 1 1.043-.226q.594 0 1.056.218.466.218.726.607.261.39.265.89H11.71a.77.77 0 0 0-.128-.437.84.84 0 0 0-.359-.303 1.3 1.3 0 0 0-.534-.107q-.303 0-.535.102a.83.83 0 0 0-.359.291.76.76 0 0 0-.128.436q0 .29.188.505.188.21.492.26l.996.163A1.83 1.83 0 0 1 12.3 9M7.872 6H3.135v1H5v5h1V7h1.872z"/><path fill="#57965C" fill-rule="evenodd" d="M15.38 12.712a.4.4 0 0 1 0 .576l-2.703 2.6a.4.4 0 0 1-.677-.289v-5.195a.4.4 0 0 1 .677-.289z" clip-rule="evenodd"/><path fill="#DB5C5C" fill-rule="evenodd" d="M7.623 13.288a.4.4 0 0 1 0-.576l2.699-2.596a.4.4 0 0 1 .677.289v5.194a.4.4 0 0 1-.678.288z" clip-rule="evenodd"/></svg>
